style-guide/assets/xd-icons-gear-small.svg

<svg viewBox="0 0 18 18" xmlns="http://www.w3.org/2000/svg" xmlns:xlink="http://www.w3.org/1999/xlink">
  <path d="M9 10a1.001 1.001 0 0 1 0-2 1.001 1.001 0 0 1 0 2m0-4C7.346 6 6 7.346 6 9s1.346 3 3 3 3-1.346 3-3-1.346-3-3-3m0 8c-2.757 0-5-2.243-5-5s2.243-5 5-5 5 2.243 5 5-2.243 5-5 5m8-6h-1.071a6.959 6.959 0 0 0-1.325-3.189l.76-.76a1 1 0 1 0-1.414-1.415l-.76.76A6.962 6.962 0 0 0 10 2.071V1a1 1 0 1 0-2 0v1.071a6.962 6.962 0 0 0-3.19 1.325l-.76-.76a1 1 0 0 0-1.414 1.415l.76.76A6.959 6.959 0 0 0 2.071 8H1a1 1 0 1 0 0 2h1.071a6.959 6.959 0 0 0 1.325 3.189l-.76.76a1 1 0 1 0 1.414 1.415l.76-.76A6.962 6.962 0 0 0 8 15.929V17a1 1 0 1 0 2 0v-1.071a6.962 6.962 0 0 0 3.19-1.325l.76.76a1 1 0 0 0 1.414-1.415l-.76-.76A6.959 6.959 0 0 0 15.929 10H17a1 1 0 1 0 0-2"/>
</svg>

<?xml version="1.0" encoding="UTF-8"?>
<svg width="18px" height="18px" viewBox="0 0 18 18" version="1.1" xmlns="http://www.w3.org/2000/svg" xmlns:xlink="http://www.w3.org/1999/xlink">
    <!-- Generator: Sketch 51.3 (57544) - http://www.bohemiancoding.com/sketch -->
    <title>settings</title>
    <desc>Created with Sketch.</desc>
    <defs>
        <path d="M9,10 C8.448,10 8,9.551 8,9 C8,8.449 8.448,8 9,8 C9.552,8 10,8.449 10,9 C10,9.551 9.552,10 9,10 M9,6 C7.346,6 6,7.346 6,9 C6,10.654 7.346,12 9,12 C10.654,12 12,10.654 12,9 C12,7.346 10.654,6 9,6 M9,14 C6.243,14 4,11.757 4,9 C4,6.243 6.243,4 9,4 C11.757,4 14,6.243 14,9 C14,11.757 11.757,14 9,14 M17,8 L15.929,8 C15.759,6.816 15.291,5.727 14.604,4.811 L15.364,4.051 C15.755,3.66 15.755,3.027 15.364,2.637 C14.974,2.246 14.341,2.246 13.95,2.636 L13.19,3.396 C12.273,2.709 11.185,2.241 10,2.071 L10,1 C10,0.447 9.553,0 9,0 C8.447,0 8,0.447 8,1 L8,2.071 C6.815,2.241 5.727,2.709 4.81,3.396 L4.05,2.636 C3.659,2.246 3.026,2.246 2.636,2.637 C2.245,3.027 2.245,3.66 2.636,4.051 L3.396,4.811 C2.709,5.727 2.241,6.816 2.071,8 L1,8 C0.447,8 0,8.447 0,9 C0,9.553 0.447,10 1,10 L2.071,10 C2.241,11.184 2.709,12.273 3.396,13.189 L2.636,13.949 C2.245,14.34 2.245,14.973 2.636,15.363 C3.026,15.754 3.659,15.754 4.05,15.364 L4.81,14.604 C5.727,15.291 6.815,15.759 8,15.929 L8,17 C8,17.553 8.447,18 9,18 C9.553,18 10,17.553 10,17 L10,15.929 C11.185,15.759 12.273,15.291 13.19,14.604 L13.95,15.364 C14.341,15.754 14.974,15.754 15.364,15.363 C15.755,14.973 15.755,14.34 15.364,13.949 L14.604,13.189 C15.291,12.273 15.759,11.184 15.929,10 L17,10 C17.553,10 18,9.553 18,9 C18,8.447 17.553,8 17,8" id="path-1"></path>
    </defs>
    <g id="settings" stroke="none" stroke-width="1" fill="none" fill-rule="evenodd">
        <mask id="mask-2" fill="white">
            <use xlink:href="#path-1"></use>
        </mask>
        <use id="icons/18px/Settings" fill="#000000" xlink:href="#path-1"></use>
    </g>
</svg>
